X:1
T:Ode to Joy Harmonization
T:Ode to Joy Harmonization
T:Jodi Vuong
C:Jodi Vuong
%%score { 1 | 2 }
L:1/8
M:4/4
K:D
V:1 treble nm="Piano" snm="Pno."
V:2 bass 
V:1
 F2 F2 G2 A2 | A2 G2 F2 E2 | D2 D2 E2 F2 | F3 E E4 | F2 F2 G2 A2 | A2 G2 F2 E2 | D2 D2 E2 F2 | %7
 E3 D D4 | E2 E2 F2 D2 | E2 FG F2 D2 | E2 FG F2 E2 | D2 E2 A,4 | F2 F2 G2 A2 | A2 G2 F2 E2 | %14
 D2 D2 E2 F2 | E3 D D4 |] %16
V:2
 [D,F,A,]8 | [F,A,D]8 | [F,A,D]8 | [G,B,D]8 | [D,F,A,]8 | [F,A,D]8 | [G,B,D]8 | %7
 [C,E,A,]4 [D,F,A,]4 | [A,,C,E,]4 [F,,A,,D,]4 | [G,,A,,C,]4 [D,F,A,]4 | [G,,B,,E,]4 [F,,A,,D,]4 | %11
 [F,,A,,D,]4 [A,,C,]4 | [D,F,A,]8 | [F,A,D]8 | [G,B,D]8 | [C,E,A,]4 [D,F,A,]4 |] %16

